Newaita/actions/22/format-text-smaller.svg

<svg height="22" viewBox="0 0 22 22" width="22" xmlns="http://www.w3.org/2000/svg"><path d="m10.914062 6.632812c-1.210937 0-2.285156.441407-2.945312 1.121094l1.714844.933594c.324218-.148438.757812-.238281 1.230468-.238281 1.007813 0 1.820313.40625 1.820313.910156v1.273437c-.535156-.230468-1.15625-.363281-1.820313-.363281-2.015624 0-3.636718 1.21875-3.636718 2.730469v.453125h.050781c.285156 1.292969 1.777344 2.273437 3.585937 2.273437.664063 0 1.285157-.132812 1.820313-.363281v.363281h1.820313v-6.367187c0-1.511719-1.625-2.726563-3.640626-2.726563zm0 5.457032c1.007813 0 1.820313.40625 1.820313.910156s-.8125.90625-1.820313.90625c-1.007812 0-1.816406-.402344-1.816406-.90625s.808594-.910156 1.816406-.910156zm0 0" fill="#424242"/></svg>

<svg xmlns="http://www.w3.org/2000/svg" xmlns:xlink="http://www.w3.org/1999/xlink" width="22px" height="22px" viewBox="0 0 22 22" version="1.1">
<g id="surface1">
     <defs>
  <style id="current-color-scheme" type="text/css">
   .ColorScheme-Text { color:#424242; } .ColorScheme-Highlight { color:#eeeeee; }
  </style>
 </defs>
<path style="fill:currentColor" class="ColorScheme-Text" d="M 10.914062 6.632812 C 9.703125 6.632812 8.628906 7.074219 7.96875 7.753906 L 9.683594 8.6875 C 10.007812 8.539062 10.441406 8.449219 10.914062 8.449219 C 11.921875 8.449219 12.734375 8.855469 12.734375 9.359375 L 12.734375 10.632812 C 12.199219 10.402344 11.578125 10.269531 10.914062 10.269531 C 8.898438 10.269531 7.277344 11.488281 7.277344 13 L 7.277344 13.453125 L 7.328125 13.453125 C 7.613281 14.746094 9.105469 15.726562 10.914062 15.726562 C 11.578125 15.726562 12.199219 15.59375 12.734375 15.363281 L 12.734375 15.726562 L 14.554688 15.726562 L 14.554688 9.359375 C 14.554688 7.847656 12.929688 6.632812 10.914062 6.632812 Z M 10.914062 12.089844 C 11.921875 12.089844 12.734375 12.496094 12.734375 13 C 12.734375 13.503906 11.921875 13.90625 10.914062 13.90625 C 9.90625 13.90625 9.097656 13.503906 9.097656 13 C 9.097656 12.496094 9.90625 12.089844 10.914062 12.089844 Z M 10.914062 12.089844 "/>
</g>
</svg>
